X: 21261
T: CALLER HERRING
C: Nathaniel Gow.
Q: "Not too fast."
%R: strathspey
B: W. Hamilton "Universal Tune-Book" Vol. 2 Glasgow 1846 p.126 #1
S: http://s3-eu-west-1.amazonaws.com/itma.dl.printmaterial/book_pdfs/hamiltonvol2web.pdf
Z: 2016 John Chambers <jc:trillian.mit.edu>
M: C
L: 1/8
K: Bb
% - - - - - - - - - - - - - - - - - - - - - - - - -
F |\
B2 B>B A2 B z/c/ | dGc>B AFGA |\
B2 B>B A2 B z/c/ | d>Bc>A B3 :: b |\
.a.g.f.e .d.c.B.b | .a.g.f.e .d.c.B.b |
.a.g.f.e .d.e=ef | gGc>B AFGA |\
B2 B>B A2 B z/c/ | dGc>B AFGA |\
B2 B>B A2 B z/c/ | d>ecB B3 :: f |\
b2 bb a2 b z/a/ |
gfed cde=e |\
f2 f>f =e2 f z/g/ | a>bg>f f3 d |\
e2 e>e d2 e>f | gGc>B AFGA |\
B2 B>B ABge | d>ec>B B3 :|
% - - - - - - - - - - - - - - - - - - - - - - - - -

%%sep 1 1 500
%%sep 1 1 500

